dist/assets/img/shipping-partners/dhl.svg

<svg width="225" height="50" viewBox="0 0 225 50" fill="none" xmlns="http://www.w3.org/2000/svg">
<path d="M0 50V0H225V50H0Z" fill="#FECC00"/>
<path d="M72.5449 20.8916C71.5617 22.2323 69.9166 24.563 68.9154 25.9243C68.4072 26.6166 67.4892 27.8735 70.5324 27.8735C73.7522 27.8735 86.5546 27.8735 86.5546 27.8735C86.5546 27.8735 89.1369 24.3361 91.3018 21.3776C94.2463 17.3529 91.5565 8.97876 81.0291 8.97876C71.6065 8.97876 39.5697 8.97876 39.5697 8.97876L32.3812 18.8135C32.3812 18.8135 69.6477 18.8135 71.5604 18.8135C73.5384 18.8135 73.5115 19.5715 72.5449 20.8916ZM60.7744 30.2996C57.7312 30.2996 58.6492 29.0401 59.1574 28.3479C60.1586 26.9865 61.8306 24.6803 62.8138 23.3396C63.7817 22.0195 63.8073 21.2615 61.8267 21.2615C59.9153 21.2615 43.9085 21.2615 43.9085 21.2615L29.4712 41.0187C29.4712 41.0187 55.2565 41.0187 64.6791 41.0187C76.3076 41.0187 82.7817 33.0545 84.7776 30.3009C84.7776 30.2996 63.9929 30.2996 60.7744 30.2996ZM83.6779 41.0187H104.332L112.162 30.2983L91.5104 30.3009C91.504 30.2996 83.6779 41.0187 83.6779 41.0187ZM136.968 8.97876L129.046 19.8139H119.828L127.746 8.97876H107.099L93.2848 27.8735H143.803L157.613 8.97876H136.968ZM113.55 41.0187H134.196L142.03 30.3009H121.384C121.376 30.2996 113.55 41.0187 113.55 41.0187ZM0 34.5279V36.8045H28.7645L30.4262 34.5279H0ZM33.518 30.2996H0V32.5736H31.8524L33.518 30.2996ZM0 41.0187H25.6829L27.337 38.755H0V41.0187ZM194.689 36.8032H225V34.5266H196.353L194.689 36.8032ZM191.61 41.0187H225V38.755H193.263L191.61 41.0187ZM199.44 30.2996L197.779 32.5762H225V30.2996H199.44ZM172.396 27.8735L186.209 8.97876H164.341C164.333 8.97876 150.518 27.8735 150.518 27.8735H172.396ZM148.747 30.2996C148.747 30.2996 147.238 32.3764 146.505 33.3767C143.912 36.9038 146.205 41.0187 154.667 41.0187C164.443 41.0187 187.827 41.0187 187.827 41.0187L195.661 30.3009L148.747 30.2996Z" fill="#D50029"/>
</svg>

<svg width="225" height="50" fill="none" xmlns="http://www.w3.org/2000/svg"><path d="M0 50V0h225v50H0z" fill="#FECC00"/><path d="M72.545 20.892c-.983 1.34-2.628 3.671-3.63 5.032-.508.693-1.426 1.95 1.617 1.95h16.023s2.582-3.538 4.747-6.496c2.944-4.025.254-12.4-10.273-12.4H39.57l-7.188 9.836h39.18c1.977 0 1.95.758.984 2.078zM60.775 30.3c-3.044 0-2.126-1.26-1.618-1.952 1.002-1.361 2.674-3.668 3.657-5.008.968-1.32.993-2.078-.987-2.078H43.908L29.471 41.019H64.68c11.629 0 18.103-7.965 20.099-10.718L60.774 30.3zm22.903 10.719h20.654l7.83-10.72-20.652.002a9898.38 9898.38 0 00-7.832 10.718zm53.29-32.04l-7.922 10.835h-9.218l7.918-10.835h-20.647L93.285 27.874h50.518l13.81-18.895h-20.645zm-23.418 32.04h20.646L142.03 30.3h-20.646a8334.66 8334.66 0 00-7.834 10.718zM0 34.528v2.276h28.765l1.661-2.276H0zM33.518 30.3H0v2.274h31.852l1.666-2.274zM0 41.019h25.683l1.654-2.264H0v2.264zm194.689-4.216H225v-2.276h-28.647l-1.664 2.276zm-3.079 4.216H225v-2.264h-31.737l-1.653 2.264zm7.83-10.72l-1.661 2.277H225V30.3h-25.56zm-27.044-2.425l13.813-18.895h-21.868c-.008 0-13.823 18.895-13.823 18.895h21.878zM148.747 30.3s-1.509 2.076-2.242 3.077c-2.593 3.527-.3 7.642 8.162 7.642h33.16l7.834-10.718-46.914-.001z" fill="#D50029"/></svg>
